X: 65
T: Aldı Aklım
C: II. Mahmut (Adlî)
O: Turkey
F: http://compmusic.upf.edu/node/140
N: mahur--tavsanca--aksak--aldi_aklim--ii_mahmud
N: makam= mahur
N: form= tavsanca
N: usul= aksak = 9/8
M: 9/8
L: 1/16
K: C ^9/8f   
Q: 1/4=102
%%MIDI tuningsystem comma53
g3f e2f2 g4 a4 ba | g4c'2 baag gfg4fa  | \
w:   |   | 
g4 g2a2 g2f2 gfe4 | 
w:   | 
z2 e4 g2f2 g2fe d6z2 c'4 c'2c'b bab4 | \
w:   | 
ag g3f e2f2 g4 a4  | 
w:   | 
bag4c'2 baag gfg4 | fa g4 g2a2 g2f2 gfe4z2 e4 g2f2 fed6 z2ed ^c2d2 e2d2 g4  | 
w:   |   | 
fee3dc2 d2e4g2 f2 | a2 e4 e3d d3c d2e2  | \
w:   |   | 
dcc4c4c3BB2 B2 | 
w:   | 
c2 BAA3Ged d^cc_7/8B BAAG  | GFG2 z2g4=fe edd^c d4 ced4e2 edd=c2Bg4fe ed2c eddc cBAB c4 BAG4A4A4A2  | 
w:   |   | 
B2AG G2A3Ged d^cc_7/8B BA | G2 F2_7/8B2 AGG4G4G4z4z2 g2z2 gzaz g2 | 
w:   |   | 
f2 g2f2 e2z2 g2f2 e2ed  | ^ced6 d2z2 e2f2 g2 | \
w:   |   | 
a2 b2a2 g2z2 c'2b2 a2ag  | 
w:   | 
gfg6 d2z2 g2z2 f2 | e2 ag=fe d2z2 f2e2 d2dc  | \
w:   |   | 
B^AB6 G2z2 =A2B2 c2 | 
w:   | 
e2 d2^c2 _7/8B2B2 A2B2 c2dc  | _7/8BAG4z2 g2z2 gzaz g2 | 
w:   |   | 
f2 g2f2 e2z2 g2f2 e2ed  | ^ced6 d2z2 e2f2 g2 | \
w:   |   | 
a2 b2a2 g2z2 c'2b2 a2ag  | 
w:   | 
gfg6 d2z2 g2z2 f2 | e2 ag=fe d2z2 f2e2 d2dc  | \
w:   |   | 
B^AB6 G2z2 =A2B2 c2 | 
w:   | 
e2 d2^c2 _7/8B2B2 A2B2 c2dc  | _7/8BAG4z2 g3f e2f2 g4 a4 bag4c'2 baag  | 
w:   |   | 
gfg4fa g4 g2a2 g2 | f2 gfe4z2 e4 g2f2  | \
w:   |   | 
g2fe d6z2 c'4 c'2 | 
w:   | 
c'b bab4ag g3f e2f2  | g4 a4 bag4c'2 ba | \
w:   |   | 
ag gfg4fa g4 g2a2  | 
w:   | 
g2f2 gfe4z2 e4 g2 | f2 fed6 z2ed ^c2d2  | \
w:   |   | 
e2d2 g4 fee3dc2 d2 | 
w:   | 
e4g2 f2a2 e4 e3d  | d3c d2e2 dcc4c4 | \
w:   |   | 
c3BB2 B2c2 BAA3Ged  | 
w:   | 
d^cc_7/8B BAAG GFG2 z2g4 | =fe edd^c d4 ced4e2  | 
w:   |   | 
eddc2Bg4=fe ed2c ed | dc cBAB c4 BAG4A4A4A2 B2AG G2A3G | 
w:   |   | 
ed d^cc_7/8B BAG2 F2B2 AGG4G4G4z4z2 |
w:   | 


